X: 21152
T: MAY'S QUADRILLES # 4
R: reel, march
B: K\"ohler's Violin Repository, v.2, 1885 p.115 #2
F: http://www.archive.org/details/klersviolinrepos02rugg
Z: 2012 John Chambers <jc:trillian.mit.edu>
N: The intented part order isn't clear; it may be ABACA.
M: 2/4
L: 1/16
K: D
ud2 |\
(dc)df a4 | (fd)cd A4 | ABcd efga | g4 f4 |\
gecA GECA, | A,B,CD EFGA | G2c2 E2c2 | d6 ||
ue2 |\
defg abc'd' | d'c'ba gfed | (cd)ed c2e2 | a6 z2 |\
(vag)fe ^d2f2 | g6 z2 | (ved)cB A2c2 | d6 "^D.C."||
uF2 |\
B2c2d2e2 | f2g2f2d'2 | c'2b2^a2c'2 | f'6 e'2 |\
d'2c'2b2a2 | {a}g2f2e2d2 | c2f2 fedc | B6 "_D.C."|]

%%sep 2 1 500

